svgs/sharp-solid/head-side-headphones.svg

<svg xmlns="http://www.w3.org/2000/svg" viewBox="0 0 512 512"><!--! Font Awesome Pro 6.6.0 by @fontawesome - https://fontawesome.com License - https://fontawesome.com/license (Commercial License) Copyright 2024 Fonticons, Inc. --><path d="M160 106.8l0-97.5C67.4 36.9 0 122.8 0 224.2c0 58.7 23 115.1 64 157L64 480l0 32 32 0 192 0 32 0 0-32 0-32 96 0 32 0 0-32 0-96 32 0 32 0 0-32 0-16 0-11.2-7-8.8-57.3-71.7C441.6 79.7 358.1 0 256 0l0 106.8c37.8 18 64 56.5 64 101.2c0 61.9-50.1 112-112 112s-112-50.1-112-112c0-44.7 26.2-83.2 64-101.2zM176 208a32 32 0 1 1 64 0 32 32 0 1 1 -64 0zm96 0a64 64 0 1 0 -128 0 64 64 0 1 0 128 0z"/></svg>

<svg xmlns="http://www.w3.org/2000/svg" viewBox="0 0 512 512"><!--! Font Awesome Pro 6.4.2 by @fontawesome - https://fontawesome.com License - https://fontawesome.com/license (Commercial License) Copyright 2023 Fonticons, Inc. --><path d="M160 106.8V9.3C67.4 36.9 0 122.8 0 224.2c0 58.7 23 115.1 64 157V480v32H96 288h32V480 448h96 32V416 320h32 32V288 272 260.8l-7-8.8-57.3-71.7C441.6 79.7 358.1 0 256 0V106.8c37.8 18 64 56.5 64 101.2c0 61.9-50.1 112-112 112s-112-50.1-112-112c0-44.7 26.2-83.2 64-101.2zM176 208a32 32 0 1 1 64 0 32 32 0 1 1 -64 0zm96 0a64 64 0 1 0 -128 0 64 64 0 1 0 128 0z"/></svg>
